icons/ansi-b-portrait-24.svg

<?xml version="1.0" encoding="UTF-8"?><svg id="icons" xmlns="http://www.w3.org/2000/svg" viewBox="0 0 24 24"><defs><style>.cls-1{fill:none;}.cls-1,.cls-2,.cls-3{stroke-width:0px;}.cls-2{opacity:.25;}</style></defs><rect class="cls-1" width="24" height="24"/><path class="cls-2" d="M15,5H5v-3h10v3Z"/><path class="cls-3" d="M16.28998,1H4v7h1V2h10v6h6v15H5v-2h-1v3h18V6.70898l-5.71002-5.70898ZM21,7h-5V2h.20001l4.79999,4.79999v.20001ZM7.35645,14.16028c.39575-.44226.64355-1.02008.64355-1.66028,0-1.38074-1.11926-2.5-2.5-2.5h-2.5v9h3.5c1.38074,0,2.3-1.11932,2.3-2.5,0-1.07849-.48658-1.98901-1.44355-2.33972ZM4,11h1.5c.82715,0,1.5.67285,1.5,1.5s-.67285,1.5-1.5,1.5h-1.5v-3ZM6.5,18h-2.5v-3h2.5c.82715,0,1.5.67285,1.5,1.5s-.67285,1.5-1.5,1.5Z"/></svg>

<svg xmlns="http://www.w3.org/2000/svg" viewBox="0 0 24 24"><path stroke-width="0" fill="none" d="M0 0h24v24H0z"/><path d="M15 5H5V2h10v3z" opacity=".25" stroke-width="0"/><path d="M16.29 1H4v7h1V2h10v6h6v15H5v-2H4v3h18V6.709L16.29 1zM21 7h-5V2h.2L21 6.8V7zM7.356 14.16A2.48 2.48 0 0 0 8 12.5 2.5 2.5 0 0 0 5.5 10H3v9h3.5c1.38 0 2.3-1.12 2.3-2.5 0-1.078-.487-1.989-1.444-2.34zM4 11h1.5c.827 0 1.5.673 1.5 1.5S6.327 14 5.5 14H4v-3zm2.5 7H4v-3h2.5c.827 0 1.5.673 1.5 1.5S7.327 18 6.5 18z" stroke-width="0"/></svg>
